usr/share/icons/biglinux-icons-material-dark/22/actions/view-financial-account-close.svg

<svg viewBox="0 0 22 22" xmlns="http://www.w3.org/2000/svg">
    <style type="text/css" id="current-color-scheme">
      .ColorScheme-Text {
        color:#dedede;
      }
    </style>
<path
    d="m19 2.9941406-9 7.3730474v8.632812h9v-5h-1v3h-5.490234l6.490234-5.3125v-8.6933594zm-12.71875 0.0058594-0.6875 0.65625 1.4375 1.34375h-4.03125v1.0019531h4.03125l-1.4375 1.3417969 0.6875 0.65625 2.71875-2.5-2.71875-2.5zm11.71875 2.1054688v6.1074222l-7 5.732421v-6.109374l7-5.7304692z"
    style="fill:currentColor;fill-opacity:1;stroke:none"
    class="ColorScheme-Text"
    />
</svg>

<svg xmlns="http://www.w3.org/2000/svg" viewBox="0 0 22 22">
<style id="current-color-scheme" type="text/css">
.ColorScheme-Text{color:#dedede}
</style>
<path d="m19 2.994-9 7.373V19h9v-5h-1v3h-5.49L19 11.688zM6.281 3l-.687.656L7.03 5H3v1.002h4.031L5.594 7.344 6.28 8 9 5.5zM18 5.105v6.108l-7 5.732v-6.11z" class="ColorScheme-Text" style="fill:currentColor;fill-opacity:1;stroke:none"/>
</svg>
